X:1
T:Partition sans titre
C:Compositeur / Arrangeur
L:1/8
M:4/4
I:linebreak $
K:D
V:1 treble nm="Violon" snm="Vln."
V:1
"D" F2 A2 ABAG | F2 A2 A2 Bc | d2 e2"A" efed | c2 e2 dcBA |"D" F2 A2 ABAG | F2 A2 A2 Bc | %6
 d2 e2"A" efed |1 c2 e2"D" d3 A :|2 c2 e2"D" d3 e |:"D" fgfe f2 a2 | a2 gf"A" e2 g2 | %11
"D" f2 fe d2 f2 |"A" edcB"D" A3 e |"D" fgfe f2 a2 | a2 gf"A" e2 g2 |"D" f2 fe defg | %16
 abag"A" a2 c2 |1[M:2/4]"D" d3 e :|2"D" d2 A z |] %19
